X:2209
T:Car y Cooag 
C:Traditional
O:Isle of Man
Z:Clague collection
B:Kiaull Vannin #209 
L:1/8
M:3/8  
K:G 
g|d2 zg|d B>A|GG A|B2 d|d zB|d zd/ c/|
B2 c|d2 B|B<B G|B B G|D F D|G2||
K:A
e|c2 e|c e d|c c d|e2c|Az c|Az c/ B/|
A2 B|c2 a|e <e a|e e A|E F E|A2||

